icons/linear-ele-other-sport-soccer.svg

<svg xmlns="http://www.w3.org/2000/svg" width="32px" height="32px" viewBox="0 0 32 32" version="1.1">
    <title>linear-ele-other-sport-soccer</title>
    <g id="linear-ele-other-sport-soccer" stroke-width="1" fill-rule="evenodd">
        <path d="M16,2 C23.7319865,2 30,8.2680135 30,16 C30,23.7319865 23.7319865,30 16,30 C8.2680135,30 2,23.7319865 2,16 C2,8.2680135 8.2680135,2 16,2 Z M16,4 C12.7306442,4 9.76665539,5.30743139 7.60235963,7.42796809 C8.103806,8.20571321 8.7109099,8.90740742 9.40261071,9.51512134 L8.23538833,11.1496814 C7.49045163,10.5168885 6.82378652,9.79474279 6.2519564,8.99980767 C4.8352765,10.9687469 4,13.3868288 4,16 C4,18.6131712 4.8352765,21.0312531 6.25340553,23.0018218 C6.82378652,22.2052572 7.49045163,21.4831115 8.23538833,20.8503186 L9.40261071,22.4848787 C8.71075244,23.0927309 8.10352962,23.7946062 7.60090725,24.5705396 C9.76665539,26.6925686 12.7306442,28 16,28 C19.2693558,28 22.2333446,26.6925686 24.3976404,24.5720319 C23.8963165,23.7944283 23.2891599,23.0926539 22.5973893,22.4848787 L23.7646117,20.8503186 C24.5095484,21.4831115 25.1762135,22.2052572 25.7480436,23.0001923 C27.1647235,21.0312531 28,18.6131712 28,16 C28,13.3868288 27.1647235,10.9687469 25.7465945,8.99817823 C25.1762135,9.79474279 24.5095484,10.5168885 23.7646117,11.1496814 L22.5973893,9.51512134 C23.2892144,8.90729817 23.8964123,8.20546093 24.3990206,7.42957175 C22.2333446,5.30743139 19.2693558,4 16,4 Z M19.4835683,18.5134472 C20.4223565,18.7977806 21.3125016,19.1940521 22.1384732,19.6867313 L20.9709855,21.3211028 C20.3712664,20.9768622 19.732475,20.6929938 19.0629022,20.4777888 L19.4835683,18.5134472 Z M12.5164317,18.5134472 L12.9370978,20.4777888 C12.267525,20.6929938 11.6287336,20.9768622 11.0290145,21.3211028 L9.86152679,19.6867313 C10.6874984,19.1940521 11.5776435,18.7977806 12.5164317,18.5134472 Z M16,18 C16.5177778,18 17.0278964,18.032793 17.5283921,18.0964154 L17.1078025,20.0606668 C16.7440543,20.0205787 16.3744303,20 16,20 C15.6255697,20 15.2559457,20.0205787 14.8921975,20.0606668 L14.4716079,18.0964154 C14.9721036,18.032793 15.4822222,18 16,18 Z M17.1078025,11.9393332 L17.5283921,13.9035846 C17.0278964,13.967207 16.5177778,14 16,14 C15.4822222,14 14.9721036,13.967207 14.4716079,13.9035846 L14.8921975,11.9393332 C15.2559457,11.9794213 15.6255697,12 16,12 C16.3744303,12 16.7440543,11.9794213 17.1078025,11.9393332 Z M11.0290145,10.6788972 C11.6287336,11.0231378 12.267525,11.3070062 12.9370978,11.5222112 L12.5164317,13.4865528 C11.5776435,13.2022194 10.6874984,12.8059479 9.86152679,12.3132687 L11.0290145,10.6788972 Z M20.9709855,10.6788972 L22.1384732,12.3132687 C21.3125016,12.8059479 20.4223565,13.2022194 19.4835683,13.4865528 L19.0629022,11.5222112 C19.732475,11.3070062 20.3712664,11.0231378 20.9709855,10.6788972 Z" id="&#24418;&#29366;" fill-rule="nonzero" />
    </g>
</svg>

<svg xmlns="http://www.w3.org/2000/svg" viewBox="0 0 32 32"><path fill="currentColor" d="M16 2c7.732 0 14 6.268 14 14s-6.268 14-14 14S2 23.732 2 16 8.268 2 16 2m0 2c-3.27 0-6.233 1.307-8.398 3.428a9.974 9.974 0 0 0 1.8 2.087L8.236 11.15A12.07 12.07 0 0 1 6.252 9 11.946 11.946 0 0 0 4 16c0 2.613.835 5.031 2.253 7.002a11.962 11.962 0 0 1 1.982-2.152l1.168 1.635c-.692.608-1.3 1.31-1.802 2.086A11.962 11.962 0 0 0 16 28c3.27 0 6.233-1.307 8.398-3.428a9.973 9.973 0 0 0-1.8-2.087l1.167-1.635A12.07 12.07 0 0 1 25.748 23 11.946 11.946 0 0 0 28 16c0-2.613-.835-5.031-2.253-7.002a11.962 11.962 0 0 1-1.982 2.152l-1.168-1.635A10.052 10.052 0 0 0 24.4 7.43 11.961 11.961 0 0 0 16 4m3.484 14.513c.938.285 1.829.681 2.654 1.174l-1.167 1.634a9.946 9.946 0 0 0-1.908-.843zm-6.968 0 .421 1.965c-.67.215-1.308.499-1.908.843l-1.167-1.634a11.935 11.935 0 0 1 2.654-1.174M16 18c.518 0 1.028.033 1.528.096l-.42 1.965a10.11 10.11 0 0 0-2.216 0l-.42-1.965c.5-.063 1.01-.096 1.528-.096m1.108-6.06.42 1.964a12.116 12.116 0 0 1-3.056 0l.42-1.965a10.11 10.11 0 0 0 2.216 0m-6.079-1.261c.6.344 1.239.628 1.908.843l-.42 1.965a11.935 11.935 0 0 1-2.655-1.174zm9.942 0 1.167 1.634c-.825.493-1.716.89-2.654 1.174l-.421-1.965c.67-.215 1.308-.499 1.908-.843"/></svg>
